front/public/static/landing/logos/gray/blueground.svg

<svg fill="none" height="263" viewBox="0 0 600 263" width="600" xmlns="http://www.w3.org/2000/svg" xmlns:xlink="http://www.w3.org/1999/xlink"><mask id="a" height="261" maskUnits="userSpaceOnUse" width="520" x="40" y="1"><path d="m560.001 1.25256h-520.001v260.49544h520.001z" fill="#fff"/></mask><mask id="b" height="261" maskUnits="userSpaceOnUse" width="520" x="40" y="1"><path d="m560.001 1.25256h-520.001v260.49544h520.001z" fill="#fff"/></mask><mask id="c" height="67" maskUnits="userSpaceOnUse" width="468" x="66" y="98"><path d="m533.134 98.504h-466.2668v65.992h466.2668z" fill="#fff"/></mask><mask id="d" height="67" maskUnits="userSpaceOnUse" width="468" x="66" y="98"><path d="m66.8672 98.504h466.2668v65.992h-466.2668z" fill="#fff"/></mask><g mask="url(#a)"><g mask="url(#b)"><g mask="url(#c)"><g fill="#364153" mask="url(#d)"><path d="m124.1 164.342h-47.8364c-5.1968 0-9.3964-4.151-9.3964-9.285v-47.268c0-5.135 4.1996-9.285 9.3964-9.285h47.9074c5.197 0 9.397 4.15 9.397 9.285v47.338c-.071 5.064-4.272 9.215-9.468 9.215zm-47.8364-59.156c-1.4239 0-2.5628 1.126-2.5628 2.532v47.339c0 1.406 1.1389 2.531 2.5628 2.531h47.9074c1.424 0 2.563-1.125 2.563-2.531v-47.268c0-1.407-1.139-2.532-2.563-2.532h-47.9074z"/><path d="m77.1188 134.799h-6.8336v-6.752h6.9048c10.8203 0 19.5762-8.652 19.5762-19.414v-6.753h6.7628v6.823c.071 14.349-11.8171 26.096-26.4102 26.096z"/><path d="m130.081 134.799h-6.905c-14.522 0-26.4095-11.747-26.4095-26.166v-6.753h6.7625v6.823c.071 10.692 8.827 19.344 19.719 19.344h6.904v6.752zm-26.481 26.166h-6.8338v-6.823c0-10.691-8.8272-19.413-19.6474-19.413h-6.8336v-6.682h6.9048c14.5932 0 26.41 11.746 26.41 26.095zm86.278-27.995c-.57-.703-1.211-1.266-1.922-1.688-.357-.211-.784-.422-1.211-.633.071-.07.143-.07.214-.14.498-.352.997-.845 1.495-1.408.498-.562.926-1.265 1.21-2.11.356-.844.498-1.829.498-2.884 0-1.125-.213-2.18-.64-3.235-.428-1.055-1.068-1.899-1.923-2.673-.854-.774-1.993-1.336-3.274-1.829-1.282-.422-2.919-.704-4.698-.704h-8.614c-1.068 0-1.921.282-2.492.845-.569.563-.853 1.336-.853 2.321v26.588c0 .914.782 1.688 1.708 1.688h11.39c2.135 0 3.914-.281 5.267-.844 1.424-.563 2.492-1.336 3.347-2.18.853-.915 1.422-1.829 1.779-2.885.356-1.055.498-2.04.498-2.954 0-1.055-.142-1.969-.498-2.884-.285-.914-.712-1.687-1.281-2.391zm-6.764-5.557c-.782.774-2.063 1.196-3.772 1.196h-5.197c-.356 0-.64-.282-.64-.634v-6.681c0-.352.284-.633.64-.633h5.054c1.78 0 3.133.351 3.915 1.055.784.703 1.211 1.618 1.211 2.743 0 1.196-.427 2.11-1.211 2.954zm-9.609 14.138v-7.385c0-.352.284-.633.64-.633h6.335c.926 0 1.71.141 2.35.351.641.212 1.21.563 1.566.915.427.352.712.844.926 1.407.213.562.284 1.125.284 1.688 0 1.265-.427 2.32-1.21 3.095-.854.774-2.135 1.196-3.986 1.196h-6.336c-.285 0-.569-.283-.569-.634zm49.473.423h-12.67c-.356 0-.641-.282-.641-.633v-24.9l-.285-.141c-.213-.14-.498-.211-.997-.351-.498-.142-.996-.212-1.566-.212-.925 0-1.637.212-2.206.704s-.855 1.196-.855 2.11v27.01c0 .914.784 1.688 1.709 1.688h17.511c.926 0 1.709-.774 1.709-1.688v-1.899c0-.985-.783-1.688-1.709-1.688zm37.658-26.025c-.498-.142-.997-.212-1.566-.212-1.922 0-3.061.985-3.061 2.743v14.349c0 1.618-.142 3.025-.427 4.291-.285 1.196-.783 2.251-1.353 3.094-.64.845-1.494 1.478-2.491 1.971-1.068.422-2.35.703-3.916.703s-2.847-.211-3.914-.703c-.997-.422-1.852-1.126-2.492-1.971-.641-.843-1.139-1.898-1.353-3.094-.284-1.266-.427-2.673-.427-4.291v-16.388l-.285-.141c-.213-.14-.498-.211-.925-.351-.499-.142-.997-.212-1.566-.212-.926 0-1.708.212-2.207.704-.569.492-.854 1.196-.854 2.11v14.771c0 4.782 1.139 8.441 3.488 10.902 2.349 2.462 5.908 3.728 10.606 3.728s8.33-1.266 10.607-3.728c2.278-2.461 3.489-6.12 3.489-10.902v-16.881l-.285-.141c-.285-.07-.641-.211-1.068-.351zm20.715 4.993h14.238l.142-.281c.142-.211.213-.492.427-.844.142-.422.284-.985.284-1.477 0-1.688-.996-2.603-2.776-2.603h-15.447c-1.068 0-1.922.282-2.492.845-.569.562-.853 1.336-.853 2.32v26.589c0 .914.782 1.687 1.708 1.687h17.939c.925 0 1.708-.773 1.708-1.687v-1.9c0-.914-.783-1.688-1.708-1.688h-13.099c-.356 0-.64-.281-.64-.632v-6.894c0-.352.284-.633.64-.633h13.596l.143-.282c.071-.14.213-.422.428-.843.142-.423.284-.915.284-1.478 0-1.687-.997-2.602-2.776-2.602h-11.675c-.356 0-.64-.281-.64-.633v-6.331c-.072-.351.214-.633.569-.633zm34.383 2.04c.925-.985 2.135-1.758 3.417-2.251 1.353-.492 2.776-.774 4.342-.774 1.067 0 2.064.141 2.99.352.925.211 1.709.493 2.42.844.641.282 1.281.633 1.708.985.499.352.855.703 1.068.984l.285.282.356-.211c.143-.071.356-.211.57-.422.284-.211.498-.422.712-.704.213-.281.427-.562.64-.914.214-.351.285-.773.285-1.196 0-.422-.143-.914-.427-1.406-.285-.492-.712-.914-1.282-1.266-.284-.211-.783-.493-1.352-.774s-1.21-.563-1.993-.774c-.783-.212-1.637-.422-2.634-.563s-2.065-.211-3.274-.211c-2.421 0-4.699.352-6.764 1.125-2.063.775-3.915 1.9-5.41 3.307s-2.704 3.165-3.559 5.205c-.854 2.039-1.281 4.291-1.281 6.823 0 2.743.427 5.134 1.352 7.175.926 2.039 2.137 3.798 3.703 5.134s3.487 2.391 5.622 3.095c2.137.703 4.557.984 7.048.984 1.281 0 2.421 0 3.56-.07 1.138-.07 2.135-.14 2.989-.211.854-.07 1.566-.141 2.136-.211.783-.07.996-.141 1.068-.141l.427-.07v-14.63c0-2.04-1.14-3.095-3.275-3.095h-9.04l-.142.281c-.072.211-.214.493-.428.845-.142.421-.285.984-.285 1.476 0 1.618.997 2.532 2.777 2.532h3.986c.356 0 .641.282.641.634v6.823c0 .281-.214.562-.569.633l-.499.07c-.712.07-1.78.141-3.062.141-1.779 0-3.416-.211-4.911-.704-1.424-.422-2.705-1.125-3.773-2.039-1.068-.916-1.851-2.111-2.42-3.518-.57-1.406-.855-3.165-.855-5.134 0-1.829.285-3.447.784-4.854.64-1.407 1.424-2.602 2.349-3.587zm55.595 20.469c-.638-1.055-1.281-2.252-2.065-3.377-.71-1.125-1.494-2.321-2.276-3.376-.428-.633-.856-1.196-1.281-1.759-.143-.14-.143-.281-.143-.492s.143-.351.285-.422c1.352-.774 2.42-1.829 3.132-3.095.996-1.617 1.495-3.376 1.495-5.275 0-1.337-.214-2.673-.713-3.869s-1.209-2.321-2.136-3.165c-.925-.914-2.134-1.617-3.486-2.181-1.353-.492-2.99-.774-4.841-.774h-7.902c-2.137 0-3.347 1.126-3.347 3.096v26.588c0 .914.786 1.688 1.709 1.688h2.419c.927 0 1.709-.774 1.709-1.688v-9.074c0-.352.285-.633.714-.633l.852.07c.785.071 1.852.071 3.133.071h.784c.64.773 1.352 1.687 1.994 2.672.782 1.126 1.495 2.181 2.134 3.236.642 1.055 1.281 2.04 1.78 2.954.356.563.57 1.126.782 1.548.285.562.855.914 1.497.914h2.918c.568 0 1.138-.281 1.424-.844.285-.492.285-1.125 0-1.618-.143-.351-.357-.773-.571-1.195zm-17.441-22.157c0-.352.285-.633.642-.633h3.915c2.136 0 3.702.492 4.626 1.477.998.984 1.426 2.18 1.426 3.657 0 .704-.143 1.408-.356 2.041-.214.632-.642 1.125-1.141 1.616-.568.494-1.281.845-2.205 1.127-.928.281-2.065.422-3.346.422-1.21 0-2.138-.071-2.776-.141-.356-.07-.641-.07-.785-.07zm54.601-1.618c-1.425-1.477-3.135-2.602-5.197-3.446-1.991-.845-4.2-1.267-6.619-1.267-2.422 0-4.627.422-6.551 1.267-1.995.844-3.701 1.969-5.126 3.446-1.422 1.477-2.562 3.236-3.345 5.205-.784 1.97-1.212 4.22-1.212 6.542 0 2.321.428 4.501 1.212 6.541.783 1.97 1.923 3.728 3.345 5.205 1.425 1.477 3.131 2.673 5.126 3.447 1.995.844 4.2 1.266 6.551 1.266 2.419 0 4.628-.422 6.619-1.266s3.701-2.04 5.197-3.447c1.422-1.477 2.565-3.235 3.345-5.205.784-1.97 1.208-4.22 1.208-6.541 0-2.322-.424-4.503-1.208-6.542-.78-1.969-1.923-3.728-3.345-5.205zm-2.276 16.318c-.502 1.407-1.215 2.604-2.066 3.588-.855.984-1.995 1.829-3.203 2.392-1.211.562-2.632.844-4.2.844-1.496 0-2.917-.282-4.203-.844-1.279-.563-2.348-1.337-3.199-2.392-.855-.984-1.568-2.251-2.066-3.588-.499-1.406-.713-2.954-.713-4.571 0-1.618.214-3.165.713-4.572.498-1.407 1.211-2.603 2.066-3.588.851-.984 1.991-1.758 3.199-2.321 1.286-.562 2.636-.844 4.203-.844 1.493 0 2.918.282 4.2.844 1.208.563 2.348 1.337 3.203 2.321.922.985 1.564 2.181 2.066 3.588.495 1.407.709 2.884.709 4.572 0 1.617-.214 3.165-.709 4.571zm44.415-20.045c-.495-.142-.994-.212-1.564-.212-1.923 0-3.06.985-3.06 2.743v14.349c0 1.618-.142 3.025-.427 4.291-.285 1.196-.713 2.251-1.354 3.094-.637.845-1.496 1.478-2.49 1.971-1.069.422-2.351.703-3.915.703-1.567 0-2.85-.211-3.915-.703-.997-.422-1.852-1.126-2.494-1.971-.637-.843-1.14-1.898-1.353-3.094-.282-1.266-.424-2.673-.424-4.291v-16.388l-.285-.141c-.214-.14-.499-.211-.926-.351-.499-.142-.998-.212-1.568-.212-.922 0-1.706.212-2.205.704-.57.492-.855 1.196-.855 2.11v14.771c0 4.782 1.14 8.441 3.488 10.902 2.351 2.462 5.91 3.728 10.605 3.728 4.698 0 8.332-1.266 10.608-3.728 2.28-2.461 3.488-6.12 3.488-10.902v-16.881l-.285-.141c-.281-.07-.566-.211-1.069-.351zm39.866-.001c-.498-.141-.997-.211-1.567-.211-.923 0-1.635.211-2.134.703-.57.493-.855 1.197-.855 2.111v16.881c0 .211-.071.352-.21.492-.146.141-.285.141-.431.141-.139 0-.356-.071-.57-.352l-.428-.703c-.922-1.477-1.92-2.954-2.988-4.501-.994-1.548-1.992-3.026-2.989-4.503-.998-1.477-1.92-2.813-2.704-4.009-.855-1.195-1.567-2.25-2.276-3.165-.574-.773-1.001-1.407-1.286-1.758-.143-.141-.282-.282-.424-.422-.285-.141-.57-.353-.998-.564-.57-.281-1.282-.422-2.133-.422-1.144 0-2.067.352-2.637.986-.57.633-.926 1.336-.926 2.11v26.729c0 .914.784 1.687 1.71 1.687h2.419c.926 0 1.71-.773 1.71-1.687v-19.204c0-.422.356-.632.641-.632.143 0 .356.07.495.281.788 1.196 1.71 2.461 2.636 3.799.927 1.406 1.92 2.813 2.918 4.361.997 1.547 1.995 3.024 2.992 4.571.994 1.547 1.92 2.955 2.847 4.362.783 1.195 1.492 2.25 2.137 3.305.285.493.851.774 1.421.774h3.274c.926 0 1.71-.774 1.71-1.688v-28.98l-.285-.141c-.285-.07-.641-.211-1.069-.351zm41.502 9.003c-.784-1.969-1.92-3.587-3.345-4.994-1.497-1.336-3.274-2.391-5.34-3.165-2.063-.774-4.414-1.126-6.975-1.126h-7.973c-1.069 0-1.924.282-2.49.845-.57.563-.859 1.336-.859 2.321v26.588c0 .914.788 1.688 1.71 1.688h9.683c2.561 0 4.912-.352 6.975-1.125 2.066-.774 3.844-1.829 5.34-3.165 1.496-1.407 2.632-3.026 3.345-4.995.784-1.899 1.14-4.079 1.14-6.471 0-2.391-.428-4.501-1.211-6.401zm-5.625 10.762c-.495 1.266-1.208 2.462-2.134 3.376-.926.915-2.066 1.689-3.416 2.252-1.354.561-2.989.773-4.77.773h-4.557c-.356 0-.641-.281-.641-.633v-20.117c0-.352.285-.633.641-.633h4.557c1.781 0 3.416.281 4.77.774 1.35.492 2.49 1.266 3.416 2.18.926.915 1.639 2.11 2.134 3.376.498 1.336.712 2.743.712 4.291s-.285 3.025-.712 4.361z"/></g></g></g></g></svg>

<svg width="600" height="263" viewBox="0 0 600 263" fill="none" xmlns="http://www.w3.org/2000/svg">
<mask id="mask0_1904_3344" style="mask-type:luminance" maskUnits="userSpaceOnUse" x="40" y="1" width="520" height="261">
<path d="M560.001 1.25256H40V261.748H560.001V1.25256Z" fill="white"/>
</mask>
<g mask="url(#mask0_1904_3344)">
<mask id="mask1_1904_3344" style="mask-type:luminance" maskUnits="userSpaceOnUse" x="40" y="1" width="520" height="261">
<path d="M560.001 1.25256H40V261.748H560.001V1.25256Z" fill="white"/>
</mask>
<g mask="url(#mask1_1904_3344)">
<mask id="mask2_1904_3344" style="mask-type:luminance" maskUnits="userSpaceOnUse" x="66" y="98" width="468" height="67">
<path d="M533.134 98.504H66.8672V164.496H533.134V98.504Z" fill="white"/>
</mask>
<g mask="url(#mask2_1904_3344)">
<mask id="mask3_1904_3344" style="mask-type:luminance" maskUnits="userSpaceOnUse" x="66" y="98" width="468" height="67">
<path d="M66.8672 98.504H533.134V164.496H66.8672V98.504Z" fill="white"/>
</mask>
<g mask="url(#mask3_1904_3344)">
<path d="M124.1 164.342H76.2636C71.0668 164.342 66.8672 160.191 66.8672 155.057V107.789C66.8672 102.654 71.0668 98.504 76.2636 98.504H124.171C129.368 98.504 133.568 102.654 133.568 107.789V155.127C133.497 160.191 129.296 164.342 124.1 164.342ZM76.2636 105.186C74.8397 105.186 73.7008 106.312 73.7008 107.718V155.057C73.7008 156.463 74.8397 157.588 76.2636 157.588H124.171C125.595 157.588 126.734 156.463 126.734 155.057V107.789C126.734 106.382 125.595 105.257 124.171 105.257H76.2636V105.186Z" fill="#364153"/>
<path d="M77.1188 134.799H70.2852V128.047H77.19C88.0103 128.047 96.7662 119.395 96.7662 108.633V101.88H103.529V108.703C103.6 123.052 91.7119 134.799 77.1188 134.799Z" fill="#364153"/>
<path d="M130.081 134.799H123.176C108.654 134.799 96.7665 123.052 96.7665 108.633V101.88H103.529V108.703C103.6 119.395 112.356 128.047 123.248 128.047H130.152V134.799H130.081ZM103.6 160.965H96.7662V154.142C96.7662 143.451 87.939 134.729 77.1188 134.729H70.2852V128.047H77.19C91.7832 128.047 103.6 139.793 103.6 154.142V160.965ZM189.878 132.97C189.308 132.267 188.667 131.704 187.956 131.282C187.599 131.071 187.172 130.86 186.745 130.649C186.816 130.579 186.888 130.579 186.959 130.509C187.457 130.157 187.956 129.664 188.454 129.101C188.952 128.539 189.38 127.836 189.664 126.991C190.02 126.147 190.162 125.162 190.162 124.107C190.162 122.982 189.949 121.927 189.522 120.872C189.094 119.817 188.454 118.973 187.599 118.199C186.745 117.425 185.606 116.863 184.325 116.37C183.043 115.948 181.406 115.666 179.627 115.666H171.013C169.945 115.666 169.092 115.948 168.521 116.511C167.952 117.074 167.668 117.847 167.668 118.832V145.42C167.668 146.334 168.45 147.108 169.376 147.108H180.766C182.901 147.108 184.68 146.827 186.033 146.264C187.457 145.701 188.525 144.928 189.38 144.084C190.233 143.169 190.802 142.255 191.159 141.199C191.515 140.144 191.657 139.159 191.657 138.245C191.657 137.19 191.515 136.276 191.159 135.361C190.874 134.447 190.447 133.674 189.878 132.97ZM183.114 127.413C182.332 128.187 181.051 128.609 179.342 128.609H174.145C173.789 128.609 173.505 128.327 173.505 127.975V121.294C173.505 120.942 173.789 120.661 174.145 120.661H179.199C180.979 120.661 182.332 121.012 183.114 121.716C183.898 122.419 184.325 123.334 184.325 124.459C184.325 125.655 183.898 126.569 183.114 127.413ZM173.505 141.551V134.166C173.505 133.814 173.789 133.533 174.145 133.533H180.48C181.406 133.533 182.19 133.674 182.83 133.884C183.471 134.096 184.04 134.447 184.396 134.799C184.823 135.151 185.108 135.643 185.322 136.206C185.535 136.768 185.606 137.331 185.606 137.894C185.606 139.159 185.179 140.214 184.396 140.989C183.542 141.763 182.261 142.185 180.41 142.185H174.074C173.789 142.185 173.505 141.902 173.505 141.551ZM222.978 141.974H210.308C209.952 141.974 209.667 141.692 209.667 141.341V116.441L209.382 116.3C209.169 116.16 208.884 116.089 208.385 115.949C207.887 115.807 207.389 115.737 206.819 115.737C205.894 115.737 205.182 115.949 204.613 116.441C204.044 116.933 203.758 117.637 203.758 118.551V145.561C203.758 146.475 204.542 147.249 205.467 147.249H222.978C223.904 147.249 224.687 146.475 224.687 145.561V143.662C224.687 142.677 223.904 141.974 222.978 141.974ZM260.636 115.949C260.138 115.807 259.639 115.737 259.07 115.737C257.148 115.737 256.009 116.722 256.009 118.48V132.829C256.009 134.447 255.867 135.854 255.582 137.12C255.297 138.316 254.799 139.371 254.229 140.214C253.589 141.059 252.735 141.692 251.738 142.185C250.67 142.607 249.388 142.888 247.822 142.888C246.256 142.888 244.975 142.677 243.908 142.185C242.911 141.763 242.056 141.059 241.416 140.214C240.775 139.371 240.277 138.316 240.063 137.12C239.779 135.854 239.636 134.447 239.636 132.829V116.441L239.351 116.3C239.138 116.16 238.853 116.089 238.426 115.949C237.927 115.807 237.429 115.737 236.86 115.737C235.934 115.737 235.152 115.949 234.653 116.441C234.084 116.933 233.799 117.637 233.799 118.551V133.322C233.799 138.104 234.938 141.763 237.287 144.224C239.636 146.686 243.195 147.952 247.893 147.952C252.591 147.952 256.223 146.686 258.5 144.224C260.778 141.763 261.989 138.104 261.989 133.322V116.441L261.704 116.3C261.419 116.23 261.063 116.089 260.636 115.949ZM281.351 120.942H295.589L295.731 120.661C295.873 120.45 295.944 120.169 296.158 119.817C296.3 119.395 296.442 118.832 296.442 118.34C296.442 116.652 295.446 115.737 293.666 115.737H278.219C277.151 115.737 276.297 116.019 275.727 116.582C275.158 117.144 274.874 117.918 274.874 118.902V145.491C274.874 146.405 275.656 147.178 276.582 147.178H294.521C295.446 147.178 296.229 146.405 296.229 145.491V143.591C296.229 142.677 295.446 141.903 294.521 141.903H281.422C281.066 141.903 280.782 141.622 280.782 141.271V134.377C280.782 134.025 281.066 133.744 281.422 133.744H295.018L295.161 133.462C295.232 133.322 295.374 133.04 295.589 132.619C295.731 132.196 295.873 131.704 295.873 131.141C295.873 129.454 294.876 128.539 293.097 128.539H281.422C281.066 128.539 280.782 128.258 280.782 127.906V121.575C280.71 121.224 280.996 120.942 281.351 120.942ZM315.734 122.982C316.659 121.997 317.869 121.224 319.151 120.731C320.504 120.239 321.927 119.957 323.493 119.957C324.56 119.957 325.557 120.098 326.483 120.309C327.408 120.52 328.192 120.802 328.903 121.153C329.544 121.435 330.184 121.786 330.611 122.138C331.11 122.49 331.466 122.841 331.679 123.122L331.964 123.404L332.32 123.193C332.463 123.122 332.676 122.982 332.89 122.771C333.174 122.56 333.388 122.349 333.602 122.067C333.815 121.786 334.029 121.505 334.242 121.153C334.456 120.802 334.527 120.38 334.527 119.957C334.527 119.535 334.384 119.043 334.1 118.551C333.815 118.059 333.388 117.637 332.818 117.285C332.534 117.074 332.035 116.792 331.466 116.511C330.897 116.23 330.256 115.948 329.473 115.737C328.69 115.525 327.836 115.315 326.839 115.174C325.842 115.033 324.774 114.963 323.565 114.963C321.144 114.963 318.866 115.315 316.801 116.088C314.738 116.863 312.886 117.988 311.391 119.395C309.896 120.802 308.687 122.56 307.832 124.6C306.978 126.639 306.551 128.891 306.551 131.423C306.551 134.166 306.978 136.557 307.903 138.598C308.829 140.637 310.04 142.396 311.606 143.732C313.172 145.068 315.093 146.123 317.228 146.827C319.365 147.53 321.785 147.811 324.276 147.811C325.557 147.811 326.697 147.811 327.836 147.741C328.974 147.671 329.971 147.601 330.825 147.53C331.679 147.46 332.391 147.389 332.961 147.319C333.744 147.249 333.957 147.178 334.029 147.178L334.456 147.108V132.478C334.456 130.438 333.316 129.383 331.181 129.383H322.141L321.999 129.664C321.927 129.875 321.785 130.157 321.571 130.509C321.429 130.93 321.286 131.493 321.286 131.985C321.286 133.603 322.283 134.517 324.063 134.517H328.049C328.405 134.517 328.69 134.799 328.69 135.151V141.974C328.69 142.255 328.476 142.536 328.121 142.607L327.622 142.677C326.91 142.747 325.842 142.818 324.56 142.818C322.781 142.818 321.144 142.607 319.649 142.114C318.225 141.692 316.944 140.989 315.876 140.075C314.808 139.159 314.025 137.964 313.456 136.557C312.886 135.151 312.601 133.392 312.601 131.423C312.601 129.594 312.886 127.976 313.385 126.569C314.025 125.162 314.809 123.967 315.734 122.982ZM371.329 143.451C370.691 142.396 370.048 141.199 369.264 140.074C368.554 138.949 367.77 137.753 366.988 136.698C366.56 136.065 366.132 135.502 365.707 134.939C365.564 134.799 365.564 134.658 365.564 134.447C365.564 134.236 365.707 134.096 365.849 134.025C367.201 133.251 368.269 132.196 368.981 130.93C369.977 129.313 370.476 127.554 370.476 125.655C370.476 124.318 370.262 122.982 369.763 121.786C369.264 120.59 368.554 119.465 367.627 118.621C366.702 117.707 365.493 117.004 364.141 116.44C362.788 115.948 361.151 115.666 359.3 115.666H351.398C349.261 115.666 348.051 116.792 348.051 118.762V145.35C348.051 146.264 348.837 147.038 349.76 147.038H352.179C353.106 147.038 353.888 146.264 353.888 145.35V136.276C353.888 135.924 354.173 135.643 354.602 135.643L355.454 135.713C356.239 135.784 357.306 135.784 358.587 135.784H359.371C360.011 136.557 360.723 137.471 361.365 138.456C362.147 139.582 362.86 140.637 363.499 141.692C364.141 142.747 364.78 143.732 365.279 144.646C365.635 145.209 365.849 145.772 366.061 146.194C366.346 146.756 366.916 147.108 367.558 147.108H370.476C371.044 147.108 371.614 146.827 371.9 146.264C372.185 145.772 372.185 145.139 371.9 144.646C371.757 144.295 371.543 143.873 371.329 143.451ZM353.888 121.294C353.888 120.942 354.173 120.661 354.53 120.661H358.445C360.581 120.661 362.147 121.153 363.071 122.138C364.069 123.122 364.497 124.318 364.497 125.795C364.497 126.499 364.354 127.203 364.141 127.836C363.927 128.468 363.499 128.961 363 129.452C362.432 129.946 361.719 130.297 360.795 130.579C359.867 130.86 358.73 131.001 357.449 131.001C356.239 131.001 355.311 130.93 354.673 130.86C354.317 130.79 354.032 130.79 353.888 130.79V121.294ZM408.489 119.676C407.064 118.199 405.354 117.074 403.292 116.23C401.301 115.385 399.092 114.963 396.673 114.963C394.251 114.963 392.046 115.385 390.122 116.23C388.127 117.074 386.421 118.199 384.996 119.676C383.574 121.153 382.434 122.912 381.651 124.881C380.867 126.851 380.439 129.101 380.439 131.423C380.439 133.744 380.867 135.924 381.651 137.964C382.434 139.934 383.574 141.692 384.996 143.169C386.421 144.646 388.127 145.842 390.122 146.616C392.117 147.46 394.322 147.882 396.673 147.882C399.092 147.882 401.301 147.46 403.292 146.616C405.283 145.772 406.993 144.576 408.489 143.169C409.911 141.692 411.054 139.934 411.834 137.964C412.618 135.994 413.042 133.744 413.042 131.423C413.042 129.101 412.618 126.92 411.834 124.881C411.054 122.912 409.911 121.153 408.489 119.676ZM406.213 135.994C405.711 137.401 404.998 138.598 404.147 139.582C403.292 140.566 402.152 141.411 400.944 141.974C399.733 142.536 398.312 142.818 396.744 142.818C395.248 142.818 393.827 142.536 392.541 141.974C391.262 141.411 390.193 140.637 389.342 139.582C388.487 138.598 387.774 137.331 387.276 135.994C386.777 134.588 386.563 133.04 386.563 131.423C386.563 129.805 386.777 128.258 387.276 126.851C387.774 125.444 388.487 124.248 389.342 123.263C390.193 122.279 391.333 121.505 392.541 120.942C393.827 120.38 395.177 120.098 396.744 120.098C398.237 120.098 399.662 120.38 400.944 120.942C402.152 121.505 403.292 122.279 404.147 123.263C405.069 124.248 405.711 125.444 406.213 126.851C406.708 128.258 406.922 129.735 406.922 131.423C406.922 133.04 406.708 134.588 406.213 135.994ZM450.628 115.949C450.133 115.807 449.634 115.737 449.064 115.737C447.141 115.737 446.004 116.722 446.004 118.48V132.829C446.004 134.447 445.862 135.854 445.577 137.12C445.292 138.316 444.864 139.371 444.223 140.214C443.586 141.059 442.727 141.692 441.733 142.185C440.664 142.607 439.382 142.888 437.818 142.888C436.251 142.888 434.968 142.677 433.903 142.185C432.906 141.763 432.051 141.059 431.409 140.214C430.772 139.371 430.269 138.316 430.056 137.12C429.774 135.854 429.632 134.447 429.632 132.829V116.441L429.347 116.3C429.133 116.16 428.848 116.089 428.421 115.949C427.922 115.807 427.423 115.737 426.853 115.737C425.931 115.737 425.147 115.949 424.648 116.441C424.078 116.933 423.793 117.637 423.793 118.551V133.322C423.793 138.104 424.933 141.763 427.281 144.224C429.632 146.686 433.191 147.952 437.886 147.952C442.584 147.952 446.218 146.686 448.494 144.224C450.774 141.763 451.982 138.104 451.982 133.322V116.441L451.697 116.3C451.416 116.23 451.131 116.089 450.628 115.949ZM490.494 115.948C489.996 115.807 489.497 115.737 488.927 115.737C488.004 115.737 487.292 115.948 486.793 116.44C486.223 116.933 485.938 117.637 485.938 118.551V135.432C485.938 135.643 485.867 135.784 485.728 135.924C485.582 136.065 485.443 136.065 485.297 136.065C485.158 136.065 484.941 135.994 484.727 135.713L484.299 135.01C483.377 133.533 482.379 132.056 481.311 130.509C480.317 128.961 479.319 127.483 478.322 126.006C477.324 124.529 476.402 123.193 475.618 121.997C474.763 120.802 474.051 119.747 473.342 118.832C472.768 118.059 472.341 117.425 472.056 117.074C471.913 116.933 471.774 116.792 471.632 116.652C471.347 116.511 471.062 116.299 470.634 116.088C470.064 115.807 469.352 115.666 468.501 115.666C467.357 115.666 466.434 116.018 465.864 116.652C465.294 117.285 464.938 117.988 464.938 118.762V145.491C464.938 146.405 465.722 147.178 466.648 147.178H469.067C469.993 147.178 470.777 146.405 470.777 145.491V126.287C470.777 125.865 471.133 125.655 471.418 125.655C471.561 125.655 471.774 125.725 471.913 125.936C472.701 127.132 473.623 128.397 474.549 129.735C475.476 131.141 476.469 132.548 477.467 134.096C478.464 135.643 479.462 137.12 480.459 138.667C481.453 140.214 482.379 141.622 483.306 143.029C484.089 144.224 484.798 145.279 485.443 146.334C485.728 146.827 486.294 147.108 486.864 147.108H490.138C491.064 147.108 491.848 146.334 491.848 145.42V116.44L491.563 116.299C491.278 116.229 490.922 116.088 490.494 115.948ZM531.996 124.951C531.212 122.982 530.076 121.364 528.651 119.957C527.154 118.621 525.377 117.566 523.311 116.792C521.248 116.018 518.897 115.666 516.336 115.666H508.363C507.294 115.666 506.439 115.948 505.873 116.511C505.303 117.074 505.014 117.847 505.014 118.832V145.42C505.014 146.334 505.802 147.108 506.724 147.108H516.407C518.968 147.108 521.319 146.756 523.382 145.983C525.448 145.209 527.226 144.154 528.722 142.818C530.218 141.411 531.354 139.792 532.067 137.823C532.851 135.924 533.207 133.744 533.207 131.352C533.207 128.961 532.779 126.851 531.996 124.951ZM526.371 135.713C525.876 136.979 525.163 138.175 524.237 139.089C523.311 140.004 522.171 140.778 520.821 141.341C519.467 141.902 517.832 142.114 516.051 142.114H511.494C511.138 142.114 510.853 141.833 510.853 141.481V121.364C510.853 121.012 511.138 120.731 511.494 120.731H516.051C517.832 120.731 519.467 121.012 520.821 121.505C522.171 121.997 523.311 122.771 524.237 123.685C525.163 124.6 525.876 125.795 526.371 127.061C526.869 128.397 527.083 129.804 527.083 131.352C527.083 132.9 526.798 134.377 526.371 135.713Z" fill="#364153"/>
</g>
</g>
</g>
</g>
</svg>
